X:1924
L:1/16
M:4/4
K:C
 B2E2A2 |[M:2/4][K:G]SOSOO .!fermata!PMTuC2O[Q:1/4=80](3MGAB | c2E2 E2DE | G2AB c2>A2 | BAGE DEFG | 
 A2AB A2 (3GAB | c2E2 E2DE | G2AB c2>A2 | BAGE D2EF | G2G2 G2 :: (Bd) | e2ef e2d2 | gedB c2>A2 | 
 BAGE DEFG | A2AB A2dc | BAGE DEFA | GABc d2Bd | e2ef e2d2 | gedB c2>A2 | BAGE DEFG | A2AB A2dc | 
 BAGE DEFA | G2GG G2 :|

